assets/images/skills/karmal-skill_b.svg

<?xml version="1.0" encoding="UTF-8" standalone="no"?>
<svg
   xmlns:dc="http://purl.org/dc/elements/1.1/"
   xmlns:cc="http://creativecommons.org/ns#"
   xmlns:rdf="http://www.w3.org/1999/02/22-rdf-syntax-ns#"
   xmlns:svg="http://www.w3.org/2000/svg"
   xmlns="http://www.w3.org/2000/svg"
   xmlns:sodipodi="http://sodipodi.sourceforge.net/DTD/sodipodi-0.dtd"
   xmlns:inkscape="http://www.inkscape.org/namespaces/inkscape"
   inkscape:version="1.0 (4035a4fb49, 2020-05-01)"
   sodipodi:docname="liturgie_b.svg"
   id="svg5"
   version="1.1"
   height="512"
   width="512"
   viewBox="0 0 512 512">
  <title
     id="title862">Devine: Liturgy</title>
  <metadata
     id="metadata11">
    <rdf:RDF>
      <cc:Work
         rdf:about="">
        <dc:format>image/svg+xml</dc:format>
        <dc:type
           rdf:resource="http://purl.org/dc/dcmitype/StillImage" />
        <dc:title>Devine: Liturgy</dc:title>
        <cc:license
           rdf:resource="http://creativecommons.org/licenses/by-sa/4.0/" />
        <dc:date>2022.02.07</dc:date>
        <dc:creator>
          <cc:Agent>
            <dc:title>Streuner²</dc:title>
          </cc:Agent>
        </dc:creator>
        <dc:contributor>
          <cc:Agent>
            <dc:title>completely selfmade</dc:title>
          </cc:Agent>
        </dc:contributor>
      </cc:Work>
      <cc:License
         rdf:about="http://creativecommons.org/licenses/by-sa/4.0/">
        <cc:permits
           rdf:resource="http://creativecommons.org/ns#Reproduction" />
        <cc:permits
           rdf:resource="http://creativecommons.org/ns#Distribution" />
        <cc:requires
           rdf:resource="http://creativecommons.org/ns#Notice" />
        <cc:requires
           rdf:resource="http://creativecommons.org/ns#Attribution" />
        <cc:permits
           rdf:resource="http://creativecommons.org/ns#DerivativeWorks" />
        <cc:requires
           rdf:resource="http://creativecommons.org/ns#ShareAlike" />
      </cc:License>
    </rdf:RDF>
  </metadata>
  <defs
     id="defs9" />
  <sodipodi:namedview
     inkscape:current-layer="svg5"
     inkscape:window-maximized="1"
     inkscape:window-y="-11"
     inkscape:window-x="-11"
     inkscape:cy="180.0939"
     inkscape:cx="-4.9573158"
     inkscape:zoom="1.8732344"
     showgrid="false"
     id="namedview7"
     inkscape:window-height="2066"
     inkscape:window-width="3840"
     inkscape:pageshadow="2"
     inkscape:pageopacity="0.61960784"
     guidetolerance="10"
     gridtolerance="10"
     objecttolerance="10"
     borderopacity="1"
     bordercolor="#666666"
     pagecolor="#323232"
     inkscape:document-rotation="0"
     borderlayer="false"
     inkscape:showpageshadow="false"
     showguides="true"
     inkscape:guide-bbox="true"
     guidecolor="#00ff00"
     guideopacity="0.49803922">
    <sodipodi:guide
       inkscape:color="rgb(0,255,0)"
       inkscape:locked="false"
       inkscape:label=""
       position="256,256"
       orientation="-1,0"
       id="guide869" />
    <sodipodi:guide
       inkscape:color="rgb(0,255,0)"
       inkscape:locked="false"
       inkscape:label=""
       position="256,256"
       orientation="0,1"
       id="guide905" />
  </sodipodi:namedview>
  <filter
     id="shadow">
    <feDropShadow
       stdDeviation="6"
       dy="12"
       dx="6" />
  </filter>
  <path
     d="M 255.92969 14.890625 A 15.0015 15.0015 0 0 0 241.32227 26.796875 L 234.95117 57.101562 C 213.733 59.326049 193.50053 64.877833 174.77734 73.220703 L 154.11133 50.164062 A 15.0015 15.0015 0 0 0 138.97656 45.714844 A 15.0015 15.0015 0 0 0 128.68555 64.841797 L 138.33789 94.324219 C 121.48279 106.61815 106.6226 121.48064 94.328125 138.33594 L 64.845703 128.68359 A 15.0015 15.0015 0 0 0 50.166016 154.10938 L 73.222656 174.77734 C 64.881155 193.49833 59.329869 213.72962 57.105469 234.94727 L 26.798828 241.31836 A 15.0015 15.0015 0 0 0 26.796875 270.67773 L 57.105469 277.04883 C 59.330036 298.26638 64.881068 318.49778 73.222656 337.21875 L 50.164062 357.88672 A 15.0015 15.0015 0 0 0 64.845703 383.31055 L 94.326172 373.6582 C 106.62065 390.51401 121.48265 405.37555 138.33789 417.66992 L 128.68555 447.15234 A 15.0015 15.0015 0 0 0 154.11133 461.83203 L 174.7793 438.77539 C 193.50146 447.11774 213.73237 452.66994 234.94922 454.89453 L 241.32031 485.19922 A 15.0015 15.0015 0 0 0 270.67969 485.20117 L 277.05078 454.89258 C 298.26684 452.66772 318.49969 447.11781 337.2207 438.77539 L 357.88867 461.83203 A 15.0015 15.0015 0 0 0 383.31445 447.15234 L 373.66016 417.66797 C 390.51402 405.37345 405.37469 390.51198 417.66797 373.65625 L 447.1543 383.31055 A 15.0015 15.0015 0 0 0 461.83398 357.88672 L 438.76953 337.21289 C 447.10959 318.49289 452.66435 298.26492 454.88867 277.04883 L 485.20117 270.67773 A 15.0015 15.0015 0 0 0 485.20117 241.31836 L 454.89062 234.94727 C 452.6664 213.73137 447.11144 193.50297 438.77148 174.7832 L 461.83398 154.11133 A 15.0015 15.0015 0 0 0 447.1543 128.68359 L 417.66797 138.33789 C 405.37463 121.48287 390.51388 106.62206 373.66016 94.328125 L 383.31445 64.841797 A 15.0015 15.0015 0 0 0 357.88867 50.164062 L 337.2207 73.222656 C 318.4991 64.880046 298.26749 59.328352 277.05078 57.103516 L 270.67969 26.794922 A 15.0015 15.0015 0 0 0 255.92969 14.890625 z M 256 29.882812 L 280.65039 147.14453 C 272.71758 145.34956 264.46892 144.39648 256 144.39648 C 247.53224 144.39648 239.28256 145.34838 231.34961 147.14258 L 256 29.882812 z M 142.94141 60.177734 L 222.91602 149.40039 C 206.83728 154.39761 192.3098 162.94172 180.24219 174.10938 L 142.94141 60.177734 z M 369.05859 60.177734 L 331.75195 174.125 C 319.68826 162.95183 305.16293 154.40028 289.08398 149.40039 L 369.05859 60.177734 z M 231.69141 72.607422 L 220.77344 124.53906 L 185.31836 84.984375 C 199.92538 78.951656 215.47454 74.730307 231.69141 72.607422 z M 280.30859 72.607422 C 296.52444 74.730166 312.07339 78.950343 326.67969 84.982422 L 291.22461 124.53711 L 280.30859 72.607422 z M 143.24023 109.29297 L 159.76367 159.76172 L 109.2832 143.23438 C 119.08295 130.50259 130.50343 119.0884 143.24023 109.29297 z M 368.76172 109.29492 C 381.49762 119.08984 392.91754 130.50352 402.7168 143.23438 L 352.23828 159.76172 L 368.76172 109.29492 z M 60.177734 142.94141 L 174.10742 180.24219 C 162.93631 192.30482 154.3875 206.82734 149.38672 222.9043 L 60.177734 142.94141 z M 451.82227 142.94141 L 362.58203 222.93164 C 357.58523 206.8483 349.04401 192.31566 337.875 180.24805 L 451.82227 142.94141 z M 256 159.41797 C 309.47634 159.41797 352.64258 202.58306 352.64258 256 C 352.64258 309.41693 309.47634 352.58203 256 352.58203 C 202.52366 352.58203 159.35742 309.41693 159.35742 256 C 159.35742 202.58306 202.52366 159.41797 256 159.41797 z M 427.04102 185.29883 C 433.08364 199.9145 437.31056 215.47448 439.43555 231.70117 L 387.46289 220.77539 L 427.04102 185.29883 z M 84.960938 185.30078 L 124.53516 220.77539 L 72.566406 231.69922 C 74.691346 215.47384 78.919038 199.91539 84.960938 185.30078 z M 364.83398 231.3457 L 482.11719 256 L 364.83398 280.6543 C 366.57507 272.9588 367.52808 264.9665 367.58398 256.76367 A 7.4894396 7.5105449 0 0 0 367.62305 256 A 7.4894396 7.5105449 0 0 0 367.58398 255.25 C 367.52909 247.04209 366.5761 239.04568 364.83398 231.3457 z M 147.125 231.35352 C 145.33087 239.28455 144.37891 247.5329 144.37891 256 C 144.37891 264.46776 145.3306 272.71483 147.125 280.64648 L 29.882812 256 L 147.125 231.35352 z M 439.43555 280.29883 C 437.31056 296.52552 433.08364 312.0855 427.04102 326.70117 L 387.46289 291.22461 L 439.43555 280.29883 z M 72.566406 280.30078 L 124.53711 291.22656 L 84.960938 326.69922 C 78.919038 312.08461 74.691346 296.52616 72.566406 280.30078 z M 362.58203 289.06836 L 451.82227 369.05859 L 337.875 331.75195 C 349.04438 319.68401 357.58504 305.15211 362.58203 289.06836 z M 149.38672 289.0957 C 154.38757 305.1721 162.93672 319.69538 174.10742 331.75781 L 60.177734 369.05859 L 149.38672 289.0957 z M 331.75195 337.875 L 369.05859 451.82227 L 289.08398 362.59766 C 305.16292 357.59761 319.68825 349.04843 331.75195 337.875 z M 180.24219 337.89062 C 192.30936 349.05813 206.83603 357.60411 222.91406 362.60156 L 142.94141 451.82227 L 180.24219 337.89062 z M 159.76172 352.23633 L 143.23828 402.70508 C 130.50194 392.90971 119.0826 381.49523 109.2832 368.76367 L 159.76172 352.23633 z M 352.23828 352.23828 L 402.7168 368.76367 C 392.91733 381.49501 381.49803 392.90985 368.76172 402.70508 L 352.23828 352.23828 z M 231.34961 364.85742 C 239.28256 366.65168 247.53224 367.60352 256 367.60352 C 264.46892 367.60352 272.71757 366.65246 280.65039 364.85742 L 256 482.11719 L 231.34961 364.85742 z M 291.22461 387.46289 L 326.67969 427.01758 C 312.07339 433.04966 296.52444 437.26983 280.30859 439.39258 L 291.22461 387.46289 z M 220.77539 387.46484 L 231.69141 439.39258 C 215.47541 437.26981 199.92665 433.04978 185.32031 427.01758 L 220.77539 387.46484 z "
     style="color:#000000;font-style:normal;font-variant:normal;font-weight:normal;font-stretch:normal;font-size:medium;line-height:normal;font-family:sans-serif;font-variant-ligatures:normal;font-variant-position:normal;font-variant-caps:normal;font-variant-numeric:normal;font-variant-alternates:normal;font-variant-east-asian:normal;font-feature-settings:normal;font-variation-settings:normal;text-indent:0;text-align:start;text-decoration:none;text-decoration-line:none;text-decoration-style:solid;text-decoration-color:#000000;letter-spacing:normal;word-spacing:normal;text-transform:none;writing-mode:lr-tb;direction:ltr;text-orientation:mixed;dominant-baseline:auto;baseline-shift:baseline;text-anchor:start;white-space:normal;shape-padding:0;shape-margin:0;inline-size:0;clip-rule:nonzero;display:inline;overflow:visible;visibility:visible;isolation:auto;mix-blend-mode:normal;color-interpolation:sRGB;color-interpolation-filters:linearRGB;solid-color:#000000;solid-opacity:1;vector-effect:none;fill:#000100;fill-opacity:1;fill-rule:evenodd;stroke:none;stroke-width:15.0001;stroke-linecap:round;stroke-linejoin:round;stroke-miterlimit:4;stroke-dasharray:none;stroke-dashoffset:0;stroke-opacity:1;paint-order:normal;color-rendering:auto;image-rendering:auto;shape-rendering:auto;text-rendering:auto;enable-background:accumulate;stop-color:#000000"
     id="path843" />
</svg>

<svg xmlns="http://www.w3.org/2000/svg" width="512" height="512" viewBox="0 0 512 512"><title>Devine: Liturgy</title><path d="M255.93 14.89a15 15 0 0 0-14.608 11.907l-6.37 30.305a198.5 198.5 0 0 0-60.175 16.119l-20.666-23.057a15 15 0 0 0-15.134-4.45 15 15 0 0 0-10.291 19.128l9.652 29.482a201.4 201.4 0 0 0-44.01 44.012l-29.482-9.652a15.002 15.002 0 0 0-14.68 25.425l23.057 20.668a198.5 198.5 0 0 0-16.118 60.17L26.8 241.318a15.002 15.002 0 0 0-.002 29.36l30.308 6.37a198.5 198.5 0 0 0 16.118 60.17l-23.059 20.669a15.002 15.002 0 0 0 14.682 25.424l29.48-9.653a201.4 201.4 0 0 0 44.012 44.012l-9.652 29.482a15.002 15.002 0 0 0 25.425 14.68l20.668-23.057a198.5 198.5 0 0 0 60.17 16.12l6.371 30.304a15.002 15.002 0 0 0 29.36.002l6.37-30.308a198.5 198.5 0 0 0 60.17-16.118l20.669 23.057a15.002 15.002 0 0 0 25.425-14.68l-9.654-29.484a201.4 201.4 0 0 0 44.008-44.012l29.486 9.655a15.002 15.002 0 0 0 14.68-25.424l-23.064-20.674a198.5 198.5 0 0 0 16.119-60.164l30.312-6.371a15.002 15.002 0 0 0 0-29.36l-30.31-6.37a198.5 198.5 0 0 0-16.12-60.165l23.063-20.672a15.002 15.002 0 0 0-14.68-25.427l-29.486 9.654a201.4 201.4 0 0 0-44.008-44.01l9.654-29.486a15.002 15.002 0 0 0-25.425-14.678L337.22 73.223a198.5 198.5 0 0 0-60.17-16.12l-6.371-30.308a15 15 0 0 0-14.75-11.904m.07 14.993 24.65 117.262a111.6 111.6 0 0 0-24.65-2.749c-8.468 0-16.717.952-24.65 2.747zM142.941 60.178l79.975 89.222c-16.079 4.998-30.606 13.542-42.674 24.71zm226.118 0-37.307 113.947c-12.064-11.173-26.59-19.725-42.668-24.725zM231.69 72.608l-10.918 51.931-35.455-39.555a184 184 0 0 1 46.373-12.377m48.618 0a184 184 0 0 1 46.37 12.374l-35.454 39.555zM143.24 109.292l16.524 50.469-50.48-16.528a185.8 185.8 0 0 1 33.956-33.941m225.522.002a185.8 185.8 0 0 1 33.955 33.94l-50.479 16.527zM60.178 142.94l113.93 37.301c-11.172 12.063-19.72 26.585-24.721 42.662zm391.644 0-89.24 79.99c-4.997-16.083-13.538-30.615-24.707-42.683zM256 159.418c53.476 0 96.643 43.165 96.643 96.582S309.476 352.582 256 352.582 159.357 309.417 159.357 256s43.167-96.582 96.643-96.582m171.041 25.88a183.8 183.8 0 0 1 12.395 46.403l-51.973-10.926zm-342.08.003 39.574 35.474L72.566 231.7a183.8 183.8 0 0 1 12.395-46.398m279.873 46.045L482.117 256l-117.283 24.654a111.6 111.6 0 0 0 2.75-23.89 7.49 7.51 0 0 0 .039-.764 7.49 7.51 0 0 0-.039-.75 111.6 111.6 0 0 0-2.75-23.904m-217.709.008A111.6 111.6 0 0 0 144.379 256c0 8.468.952 16.715 2.746 24.646L29.883 256zm292.31 48.945a183.8 183.8 0 0 1-12.394 46.402l-39.578-35.476zm-366.869.002 51.971 10.926-39.576 35.472a183.8 183.8 0 0 1-12.395-46.398m290.016 8.767 89.24 79.99-113.947-37.306c11.17-12.068 19.71-26.6 24.707-42.684m-213.195.028c5 16.076 13.55 30.6 24.72 42.662l-113.93 37.3zm182.365 48.779 37.307 113.947-79.975-89.224c16.079-5 30.604-13.55 42.668-24.723m-151.51.016c12.067 11.167 26.594 19.713 42.672 24.71l-79.973 89.221zm-20.48 14.345-16.524 50.47a185.8 185.8 0 0 1-33.955-33.942zm192.476.002 50.479 16.526a185.8 185.8 0 0 1-33.955 33.941zm-120.888 12.62a111.6 111.6 0 0 0 24.65 2.746c8.469 0 16.718-.952 24.65-2.747L256 482.117zm59.875 22.605 35.455 39.555a184 184 0 0 1-46.371 12.375zm-70.45.002 10.916 51.928a184 184 0 0 1-46.37-12.375z" style="color:#000;font-style:normal;font-variant:normal;font-weight:400;font-stretch:normal;font-size:medium;line-height:normal;font-family:sans-serif;font-variant-ligatures:normal;font-variant-position:normal;font-variant-caps:normal;font-variant-numeric:normal;font-variant-alternates:normal;font-variant-east-asian:normal;font-feature-settings:normal;font-variation-settings:normal;text-indent:0;text-align:start;text-decoration:none;text-decoration-line:none;text-decoration-style:solid;text-decoration-color:#000;letter-spacing:normal;word-spacing:normal;text-transform:none;writing-mode:lr-tb;direction:ltr;text-orientation:mixed;dominant-baseline:auto;baseline-shift:baseline;text-anchor:start;white-space:normal;shape-padding:0;shape-margin:0;inline-size:0;clip-rule:nonzero;display:inline;overflow:visible;visibility:visible;isolation:auto;mix-blend-mode:normal;color-interpolation:sRGB;color-interpolation-filters:linearRGB;solid-color:#000;solid-opacity:1;vector-effect:none;fill:#000100;fill-opacity:1;fill-rule:evenodd;stroke:none;stroke-width:15.0001;stroke-linecap:round;stroke-linejoin:round;stroke-miterlimit:4;stroke-dasharray:none;stroke-dashoffset:0;stroke-opacity:1;paint-order:normal;color-rendering:auto;image-rendering:auto;shape-rendering:auto;text-rendering:auto;stop-color:#000"/></svg>
